!!!OTL: Geluebbe.
!!!OTL-incipit:ES SEI MEIN HERZ UND BLUT GEWEIHT
!!!ARE: Europa, Mitteleuropa, Deutschland
!!!SCT: F0407
!!!TXL: @@DE
!!!YEM: Copyright 1995, estate of Helmut Schaffrath.
**kern	**text
*ICvox	*
*clefG2	*
*M4/4	*
*met(c)	*
*k[b-]	*
*F:	*
!LO:TX:a:t=Etwas langſam und innig.	!
!LO:TX:a:t=P:only the highest voice encoded:problem	!
{8fL	1._Es
8gJ	.
=1	=1
4a	ſei
4b-/	mein
4cc/	Herʒ
8dd/L	und
8eeJ	.
=2	=2
4ff/	Blut
8ee/L	ge-
8ddJ	.
4cc/}	-weiht,
{4b-/	dich,
=3	=3
4b-/	Vater-
4cc/	.
4a	-land
8cc/L	ʒu
8b-J	.
=4	=4
4a	ret-
4g	-ten;
4r}	.
{4f	wohl-
=5	=5
4a	-an,
4b-/	es
4cc/	gilt,
8dd/L	du
8eeJ	.
=6	=6
4ff/	ſeiſt
8ee/L	be-
8ddJ	.
4cc/}	-freit,
{4dd/	wir
=7	=7
4b-/	ſprengen
4cc/	.
4a	dei-
8cc/L	-ne
8b-J	.
=8	=8
(4a	Ket-
4g)	.
4f	-ten;
8r}	.
{8f	nicht
=9	=9
4g	für-
4a	-der
4.b-/	ſoll
8g	die
=10	=10
4a	ar-
4b-/	-ge
4cc/}	That,
{4cc/	Wahnwitʒ
=11	=11
4dd/	.
4cc/	und
4dd/	Ue-
4ee/	-ber-
=12	=12
4ff/	-muth,
8ee/L	Verrath,
8ddJ	.
4cc/}	.
{4dd/	in
=13	=13
4b-/	dei-
4cc/	-nem
4a	Schooß
8cc/L	ſich
8b-J	.
=14	=14
(4a	bet-
4g)	.
4f}	-ten.
==	==
!!!AGN: Vaterlands -, Heimat - Lied, nationalistisch, Krieg
!!!ONB: ESAC (Essen Associative Code) Database: FINK
!!!AMT: simple quadruple
!!!AIN: vox
!!!EED: Helmut Schaffrath
!!!EEV: 1.0
!!Text: Fr. Schlegel. 1800.
!!!source: Musikalischer Hausschatz der Deutschen. Eine Sammlung von über 1000 Liedern und Gesängen mit Singstimmen und Klavierbegleitung. Leipzig, Litterarisches Verlags-Haus.
!!!page: 248
!!!GTL: Vaterlands- und Heimathslieder
!!!URL-scan: https://www.digitale-sammlungen.de/en/view/bsb11144622?page=238,239
!!!ENC: Anna Maria Matuszewska
!!!EEV: 2024/07/31
*-	*-
